X: 393
T: Bir Muhayyerkürdî Taksîm Et
C: Ahmet Avni Konuk
O: Turkey
F: http://compmusic.upf.edu/node/140
N: muhayyerkurdi--kupe--musemmen--bir--ahmet_avni_konuk
N: makam= muhayyerkurdi
N: form= kupe
N: usul= musemmen = 8/8
M: 8/8
L: 1/16
K: C _B   
Q: 1/4=96
%%MIDI tuningsystem comma53
g4 a2a4c'_2/4b a_3/4ba2  | ac'_3/4b2 a2ag g^3/4fg^2/4f e2z2  | \
w:  Bir  Mu hay yer  |  kür *  *  dî  tak *  *  *  sîm   | 
g2^3/4f2 g2a2 d'2d'c' _3/4bag2  | 
w:  et  *  bi ze  *  ey   | 
d'c'd'2 c'_2/4bba bc'a4z2  | gga2 a2a2 _2/4b2c'2 _3/4b2a2  | \
w:  hoş *  *  ne *  ğam    |  Kal *  *  bi miz *  de   | 
g2f2 feed2ec2 c_3/4BA2  | 
w:  kal *  ma *  sın  *  *  lût  | 
A4 B2B4A2 B2d2  | cBBA G2AB {c}BAA4z2  | |


